src/icon/banking/balance-transfer/icon_balance-transfer_l_white.svg

<svg xmlns="http://www.w3.org/2000/svg" width="30" height="30" viewBox="0 0 30 30"><g fill="none" fill-rule="evenodd"><path d="M0 0h30v30H0z"/><path fill="#FFF" d="M27.8 8H23V6.2C23 5 22 4 20.8 4H2.2C1 4 0 5 0 6.2v13.5C0 21 1 22 2.2 22H7v1.8C7 25 8 26 9.2 26h18.5c1.2 0 2.2-1 2.2-2.2V10.2C30 9 29 8 27.8 8zM29 23.8c0 .7-.6 1.2-1.2 1.2H9.2c-.6 0-1.2-.6-1.2-1.2V10.2C8 9.6 8.6 9 9.2 9h18.5c.7 0 1.2.6 1.2 1.2v13.6h.1zM2.2 21c-.6 0-1.2-.6-1.2-1.2V6.2C1 5.6 1.6 5 2.2 5h18.5c.7 0 1.3.6 1.3 1.2V8H9.2C8 8 7 9 7 10.2V21H2.2z"/><path fill="#FFF" d="M21.9 21h-6.8-.1V22.4c0 .1 0 .1.1.1H22V21.1c0-.1 0-.1-.1-.1zm-.2-2.7l-2.1-5.7c-.2-.5-.4-1.1-1.2-1.1-.8 0-1 .5-1.2 1.1-.1.3-2 5.5-2.1 5.7v.1l.1.1 1.1.4c.1 0 .1 0 .1-.1s.4-1.2.5-1.3h2.8c0 .1.5 1.3.5 1.3s0 .1.1.1h.1l1.1-.4c.2-.1.2-.1.2-.2zm-4.2-2.1l1-2.9 1 2.9h-2z" opacity=".35"/><path fill="#FFF" d="M7 10.2c0-1.1.9-2 2-2.2H1v3.5h6v-1.3z" opacity=".3"/></g></svg>

<svg xmlns="http://www.w3.org/2000/svg" width="30" height="30" viewBox="0 0 30 30"><g fill="none" fill-rule="evenodd"><rect width="30" height="30" fill="none"/><path fill="#FFFFFF" d="M27.8,8 L23,8 L23,6.2 C23,5 22,4 20.8,4 L2.2,4 C1,4 0,5 0,6.2 L0,19.7 C0,21 1,22 2.2,22 L7,22 L7,23.8 C7,25 8,26 9.2,26 L27.7,26 C28.9,26 29.9,25 29.9,23.8 L29.9,10.2 C30,9 29,8 27.8,8 Z M29,23.8 C29,24.5 28.4,25 27.8,25 L9.2,25 C8.6,25 8,24.4 8,23.8 L8,10.2 C8,9.6 8.6,9 9.2,9 L27.7,9 C28.4,9 28.9,9.6 28.9,10.2 L28.9,23.8 L29,23.8 Z M2.2,21 C1.6,21 1,20.4 1,19.8 L1,6.2 C1,5.6 1.6,5 2.2,5 L20.7,5 C21.4,5 22,5.6 22,6.2 L22,8 L9.2,8 C8,8 7,9 7,10.2 L7,21 L2.2,21 Z"/><path fill="#FFFFFF" d="M21.9 21L15.1 21C15.1 21 15 21 15 21 15 21 15 21 15 21.1L15 22.4C15 22.5 15 22.5 15.1 22.5L21.9 22.5C21.9 22.5 22 22.5 22 22.5 22 22.5 22 22.5 22 22.4L22 21.1C22 21 22 21 21.9 21zM21.7 18.3L19.6 12.6C19.4 12.1 19.2 11.5 18.4 11.5 17.6 11.5 17.4 12 17.2 12.6 17.1 12.9 15.2 18.1 15.1 18.3 15.1 18.3 15.1 18.4 15.1 18.4 15.1 18.4 15.1 18.4 15.2 18.5L16.3 18.9C16.4 18.9 16.4 18.9 16.4 18.8 16.4 18.7 16.8 17.6 16.9 17.5L19.7 17.5C19.7 17.6 20.2 18.8 20.2 18.8 20.2 18.8 20.2 18.9 20.3 18.9 20.3 18.9 20.4 18.9 20.4 18.9L21.5 18.5C21.7 18.4 21.7 18.4 21.7 18.3 21.7 18.3 21.7 18.3 21.7 18.3zM17.5 16.2L18.5 13.3 19.5 16.2 17.5 16.2z" opacity=".35"/><path fill="#FFFFFF" d="M7,10.2 C7,9.1 7.9,8.2 9,8 L1,8 L1,11.5 L7,11.5 L7,10.2 Z" opacity=".3"/></g></svg>
